!!!COM: Music21
!!!OTL: reel_Arrane-Ny-Jinnyn
!!!OMV: reel_Arrane-Ny-Jinnyn
**kern
*clefG2
*k[f#c#]
*b:
*M4/4
=1
4f#
=
4b
8bL
8cc#J
4dd
8ddL
8cc#J
=
4b
8bL
8aJ
4f#
8f#L
8f#J
=
4b
8bL
8cc#J
4dd
8eeL
8eeJ
=
4ff#
8ddL
8eeJ
4ff#
8ff#L
8ff#J
=
4ee
8aaL
8ggJ
4ff#
8eeL
8cc#J
=
8ddL
8cc#J
8bL
8cc#J
4dd
8cc#L
8bJ
!!linebreak:original
=
8bL
8f#J
8cc#L
8ddJ
8eeL
8cc#J
8ddL
8eeJ
=
8ff#L
8eeJ
8ddL
8cc#J
4b
4ryy
=||
*-
